frontend/public/assets/material-icons/reason.svg

<svg xmlns="http://www.w3.org/2000/svg" viewBox="0 0 32 32"><path fill="#f44336" d="M4 4v24h24V4Zm14 15.5a.5.5 0 0 1-.5.5H16v2h1a1 1 0 0 1 1 1v3h-2v-4h-4v4h-1a1 1 0 0 1-1-1v-8a1 1 0 0 1 1-1h4a1 1 0 0 1 1 1v1h1.5a.5.5 0 0 1 .5.5Zm8-1.5h-4v2h4v2h-4v2h4v2h-5a1 1 0 0 1-1-1v-8a1 1 0 0 1 1-1h5Z"/><path fill="#f44336" d="M12 18h4v2h-4z"/></svg>

<svg xmlns="http://www.w3.org/2000/svg" viewBox="0 0 32 32">
  <g>
    <path d="M4,4V28H28V4ZM18,19.5a.5.5,0,0,1-.5.5H16v2h1a1,1,0,0,1,1,1v3H16V22H12v4H11a1,1,0,0,1-1-1V17a1,1,0,0,1,1-1h4a1,1,0,0,1,1,1v1h1.5a.5.5,0,0,1,.5.5ZM26,18H22v2h4v2H22v2h4v2H21a1,1,0,0,1-1-1V17a1,1,0,0,1,1-1h5Z" style="fill: #f44336"/>
    <rect x="12" y="18" width="4" height="2" style="fill: #f44336"/>
  </g>
</svg>
